rospo-icon-theme-classic-common/22x22/places/folder-green-network.svg

<svg xmlns="http://www.w3.org/2000/svg" width="22" height="22" version="1">
 <rect style="opacity:0.2" width="20" height="12" x="1" y="8.5" rx="1" ry="1"/>
 <path style="fill:#60924b" d="M 1,16 C 1,16.554 1.446,17 2,17 H 20 C 20.554,17 21,16.554 21,16 V 5 C 21,4.446 20.554,4 20,4 H 10 V 3 C 10,2.446 9.554,2 9,2 H 2 C 1.446,2 1,2.446 1,3"/>
 <rect style="opacity:0.2" width="20" height="12" x="1" y="7.5" rx="1" ry="1"/>
 <rect style="fill:#dcdcdc" width="16" height="8" x="3" y="6" rx="1" ry="1"/>
 <rect style="fill:#87b158" width="20" height="12" x="1" y="8" rx="1" ry="1"/>
 <path style="opacity:0.1;fill:#ffffff" d="M 2,2 C 1.446,2 1,2.446 1,3 V 3.5 C 1,2.946 1.446,2.5 2,2.5 H 9 C 9.554,2.5 10,2.946 10,3.5 V 3 C 10,2.446 9.554,2 9,2 Z M 10,4 V 4.5 H 20 C 20.554,4.5 21,4.946 21,5.5 V 5 C 21,4.446 20.554,4 20,4 Z"/>
 <path style="fill:#2f3e1f" d="M 11,10 C 8.7909,10 7,11.791 7,14 7,16.209 8.7909,18 11,18 13.209,18 15,16.209 15,14 15,11.791 13.209,10 11,10 Z M 10.714,11.107 C 10.752,11.103 10.801,11.109 10.839,11.107 10.844,11.125 10.811,11.19 10.768,11.286 10.49,11.892 10.474,12.602 10.732,12.982 10.779,13.051 10.821,13.116 10.821,13.125 10.821,13.133 10.771,13.143 10.714,13.143 10.581,13.143 10.454,13.061 10.196,12.857 10.082,12.766 9.9331,12.69 9.8751,12.678 9.7841,12.66 9.7601,12.668 9.6431,12.786 9.5341,12.895 9.5001,12.954 9.5001,13.053 9.5001,13.432 9.9501,13.733 10.786,13.911 11.921,14.151 12.201,14.367 12.232,14.964 12.271,15.713 11.873,16.277 11,16.714 10.896,16.766 10.829,16.786 10.786,16.803 10.766,16.802 10.751,16.805 10.732,16.803 10.725,16.78 10.714,16.727 10.714,16.625 10.714,16.227 10.558,15.818 10.321,15.589 10.258,15.528 10.081,15.397 9.9291,15.303 9.7771,15.209 9.6231,15.1 9.5891,15.053 9.5331,14.976 9.5281,14.928 9.5711,14.786 9.6511,14.524 9.7451,14.379 9.9291,14.214 10.025,14.128 10.122,14.055 10.143,14.053 10.164,14.052 10.02,14.008 9.8041,13.964 9.5871,13.92 9.2711,13.827 9.1071,13.768 8.808,13.659 8.4041,13.432 8.2501,13.268 8.2436,13.261 8.2379,13.256 8.2323,13.25 8.4529,12.371 9.0721,11.651 9.8931,11.303 10.065,11.231 10.242,11.181 10.429,11.143 10.522,11.124 10.618,11.117 10.714,11.107 Z M 13.393,12.446 C 13.46,12.488 13.713,13.036 13.786,13.303 13.879,13.649 13.872,14.246 13.786,14.589 13.753,14.72 13.71,14.842 13.696,14.857 13.682,14.872 13.631,14.785 13.571,14.678 13.511,14.572 13.32,14.346 13.161,14.178 12.701,13.694 12.629,13.44 12.821,13.053 12.918,12.858 13.341,12.414 13.393,12.446 Z"/>
</svg>

<svg height="22" width="22" xmlns="http://www.w3.org/2000/svg"><rect height="12" opacity=".2" rx="1" width="20" x="1" y="8.5"/><path d="m1 16c0 .554.446 1 1 1h18c .554 0 1-.446 1-1v-11c0-.554-.446-1-1-1h-10v-1c0-.554-.446-1-1-1h-7c-.554 0-1 .446-1 1" fill="#60924b"/><rect height="12" opacity=".2" rx="1" width="20" x="1" y="7.5"/><rect fill="#e4e4e4" height="8" rx="1" width="16" x="3" y="6"/><rect fill="#87b158" height="12" rx="1" width="20" x="1" y="8"/><path d="m2 2c-.554 0-1 .446-1 1v .5c0-.554.446-1 1-1h7c .554 0 1 .446 1 1v-.5c0-.554-.446-1-1-1zm8 2v .5h10c .554 0 1 .446 1 1v-.5c0-.554-.446-1-1-1z" fill="#fff" opacity=".1"/><path d="m11 10c-2.2091 0-4 1.791-4 4s1.7909 4 4 4c2.209 0 4-1.791 4-4s-1.791-4-4-4zm-.286 1.107c.038-.004.087.002.125 0 .005.018-.028.083-.071.179-.278.606-.294 1.316-.036 1.696.047.069.089.134.089.143 0 .008-.05.018-.107.018-.133 0-.26-.082-.518-.286-.114-.091-.2629-.167-.3209-.179-.091-.018-.115-.01-.232.108-.109.109-.143.168-.143.267 0 .379.45.68 1.2859.858 1.135.24 1.415.456 1.446 1.053.039.749-.359 1.313-1.232 1.75-.104.052-.171.072-.214.089-.02-.001-.035.002-.054 0-.007-.023-.018-.076-.018-.178 0-.398-.156-.807-.393-1.036-.063-.061-.24-.192-.3919-.286-.152-.094-.306-.203-.34-.25-.056-.077-.061-.125-.018-.267.08-.262.174-.407.358-.572.0959-.086.1929-.159.2139-.161.021-.001-.123-.045-.3389-.089-.217-.044-.533-.137-.697-.196-.2991-.109-.703-.336-.857-.5-.0065-.007-.0122-.012-.0178-.018.2206-.879.8398-1.599 1.6608-1.947.1719-.072.3489-.122.5359-.16.093-.019.189-.026.285-.036zm2.679 1.339c.067.042.32.59.393.857.093.346.086.943 0 1.286-.033.131-.076.253-.09.268s-.065-.072-.125-.179c-.06-.106-.251-.332-.41-.5-.46-.484-.532-.738-.34-1.125.097-.195.52-.639.572-.607z" fill="#2f3e1f"/></svg>
